symbolic/64x64/apps/gnome-sound-recorder.svg

<svg xmlns="http://www.w3.org/2000/svg" width="64" height="64" version="1">
 <path style="opacity:0.2;fill-rule:evenodd" d="m 50.003906,21.941844 c -1.787259,-0.0054 -3.182826,1.543241 -2.992188,3.320312 0,0 0.280978,2.810708 -1.398436,6.49175 C 43.933866,35.434948 40.868282,39 32,39 23.13172,39 20.066134,35.434948 18.386718,31.753906 c -1.679415,-3.681042 -1.398437,-6.49175 -1.398437,-6.49175 0.184356,-1.80114 -1.256528,-3.353989 -3.066406,-3.304687 -1.540329,0.04223 -2.798235,1.244413 -2.910156,2.781251 0,0 -0.508719,4.188416 1.917968,9.507374 C 15.118413,39.043472 20.175652,43.922698 29,44.835938 L 29,53 18,53 c -1.656855,0 -3,1.343146 -3,3 0,1.656854 1.343145,3 3,3 l 28,0 c 1.656854,0 3,-1.343146 3,-3 0,-1.656854 -1.343146,-3 -3,-3 l -11,0 0,-8.164062 c 8.824348,-0.91324 13.881586,-5.792466 16.070312,-10.589844 2.426688,-5.318958 1.91797,-9.507374 1.91797,-9.507374 -0.106752,-1.570973 -1.409788,-2.792142 -2.984376,-2.796876 z"/>
 <rect style="opacity:0.2" width="30" height="26" x="-37" y="-45" rx="12.501" ry="13" transform="matrix(0,-1,-1,0,0,0)"/>
 <path style="fill:#4f4f4f;fill-rule:evenodd" d="m 50.003906,20.941844 c -1.787259,-0.0054 -3.182826,1.543241 -2.992188,3.320312 0,0 0.280978,2.810708 -1.398436,6.49175 C 43.933866,34.434948 40.868282,38 32,38 23.13172,38 20.066134,34.434948 18.386718,30.753906 c -1.679415,-3.681042 -1.398437,-6.49175 -1.398437,-6.49175 0.184356,-1.80114 -1.256528,-3.353989 -3.066406,-3.304687 -1.540329,0.04223 -2.798235,1.244413 -2.910156,2.781251 0,0 -0.508719,4.188416 1.917968,9.507374 C 15.118413,38.043472 20.175652,42.922698 29,43.835938 L 29,52 18,52 c -1.656855,0 -3,1.343146 -3,3 0,1.656854 1.343145,3 3,3 l 28,0 c 1.656854,0 3,-1.343146 3,-3 0,-1.656854 -1.343146,-3 -3,-3 l -11,0 0,-8.164062 c 8.824348,-0.91324 13.881586,-5.792466 16.070312,-10.589844 2.426688,-5.318958 1.91797,-9.507374 1.91797,-9.507374 -0.106752,-1.570973 -1.409788,-2.792142 -2.984376,-2.796876 z"/>
 <rect style="fill:#8e8e8e" width="30" height="26" x="-36" y="-45" rx="12.501" ry="13" transform="matrix(0,-1,-1,0,0,0)"/>
 <path style="opacity:0.1;fill:#ffffff" d="M 32,6 C 24.798,6 19,11.574654 19,18.5 l 0,1 C 19,12.574654 24.798,7 32,7 c 7.202,0 13,5.574654 13,12.5 l 0,-1 C 45,11.574654 39.202,6 32,6 Z"/>
 <path style="opacity:0.1;fill:#ffffff;fill-rule:evenodd" d="M 50.003906 20.941406 C 48.216647 20.936006 46.821081 22.484648 47.011719 24.261719 C 47.011719 24.261719 47.016389 24.441061 47.021484 24.5625 C 47.20701 23.098305 48.456975 21.936732 50.003906 21.941406 C 51.578494 21.94614 52.881529 23.167308 52.988281 24.738281 C 52.988281 24.738281 53.008369 25.018148 53.021484 25.337891 C 53.059451 24.325367 52.988281 23.738281 52.988281 23.738281 C 52.881529 22.167308 51.578494 20.94614 50.003906 20.941406 z M 13.921875 20.957031 C 12.381546 20.999261 11.12364 22.201443 11.011719 23.738281 C 11.011719 23.738281 10.94055 24.325367 10.978516 25.337891 C 10.991631 25.018148 11.011719 24.738281 11.011719 24.738281 C 11.12364 23.201443 12.381546 21.999261 13.921875 21.957031 C 15.494119 21.914203 16.784779 23.082574 16.976562 24.570312 C 16.981716 24.442617 16.988281 24.261719 16.988281 24.261719 C 17.172637 22.460579 15.731753 20.907729 13.921875 20.957031 z M 16.986328 25.009766 C 16.984795 25.094416 16.997076 25.175791 16.988281 25.261719 C 16.988281 25.261719 16.707304 28.072864 18.386719 31.753906 C 20.066135 35.434948 23.13172 39 32 39 C 40.868282 39 43.933865 35.434948 45.613281 31.753906 C 47.292695 28.072864 47.011719 25.261719 47.011719 25.261719 C 47.003371 25.183905 47.014084 25.110029 47.011719 25.033203 C 46.988523 26.091457 46.788871 28.177177 45.613281 30.753906 C 43.933865 34.434948 40.868282 38 32 38 C 23.13172 38 20.066135 34.434948 18.386719 30.753906 C 17.203922 28.161382 17.007329 26.061011 16.986328 25.009766 z M 18 52 C 16.343145 52 15 53.343146 15 55 C 15 55.171057 15.023281 55.336764 15.050781 55.5 C 15.289646 54.08213 16.514202 53 18 53 L 29 53 L 29 52 L 18 52 z M 35 52 L 35 53 L 46 53 C 47.485797 53 48.710354 54.08213 48.949219 55.5 C 48.976719 55.336764 49 55.171057 49 55 C 49 53.343146 47.656854 52 46 52 L 35 52 z"/>
</svg>

<svg xmlns="http://www.w3.org/2000/svg" width="64" height="64" version="1"><path style="opacity:.2;fill-rule:evenodd" d="M50.004 21.942a3 3 0 0 0-2.992 3.32s.28 2.81-1.399 6.492C43.933 35.434 40.868 39 32 39c-8.868 0-11.934-3.565-13.613-7.246-1.68-3.681-1.399-6.492-1.399-6.492a3 3 0 1 0-5.976-.523s-.509 4.188 1.918 9.507c2.188 4.797 7.246 9.677 16.07 10.59V53H18a3 3 0 1 0 0 6h28a3 3 0 0 0 0-6H35v-8.164c8.824-.913 13.882-5.793 16.07-10.59 2.427-5.319 1.918-9.507 1.918-9.507a3 3 0 0 0-2.984-2.797z"/><rect style="opacity:.2" width="30" height="26" x="-37" y="-45" rx="12.501" ry="13" transform="matrix(0 -1 -1 0 0 0)"/><path style="fill:#4f4f4f;fill-rule:evenodd" d="M50.004 20.942a3 3 0 0 0-2.992 3.32s.28 2.81-1.399 6.492C43.933 34.434 40.868 38 32 38c-8.868 0-11.934-3.565-13.613-7.246-1.68-3.681-1.399-6.492-1.399-6.492a3 3 0 1 0-5.976-.523s-.509 4.188 1.918 9.507c2.188 4.797 7.246 9.677 16.07 10.59V52H18a3 3 0 1 0 0 6h28a3 3 0 0 0 0-6H35v-8.164c8.824-.913 13.882-5.793 16.07-10.59 2.427-5.319 1.918-9.507 1.918-9.507a3 3 0 0 0-2.984-2.797z"/><rect style="fill:#8e8e8e" width="30" height="26" x="-36" y="-45" rx="12.501" ry="13" transform="matrix(0 -1 -1 0 0 0)"/><path style="opacity:.1;fill:#fff" d="M32 6c-7.202 0-13 5.575-13 12.5v1C19 12.575 24.798 7 32 7s13 5.575 13 12.5v-1C45 11.575 39.202 6 32 6z"/><path style="opacity:.1;fill:#fff;fill-rule:evenodd" d="M50.004 20.941a3 3 0 0 0-2.992 3.32s.004.18.01.302a3 3 0 0 1 5.966.175s.02.28.033.6c.038-1.013-.033-1.6-.033-1.6a3 3 0 0 0-2.984-2.797zm-36.082.016a3 3 0 0 0-2.91 2.781s-.071.587-.033 1.6c.013-.32.033-.6.033-.6a3 3 0 0 1 2.91-2.781 3 3 0 0 1 3.055 2.613l.011-.308a3 3 0 0 0-3.066-3.305zm3.064 4.053c-.001.084.011.166.002.252 0 0-.28 2.81 1.399 6.492C20.067 35.434 23.132 39 32 39c8.868 0 11.934-3.565 13.613-7.246 1.68-3.681 1.399-6.492 1.399-6.492-.009-.078.002-.152 0-.229-.023 1.058-.223 3.144-1.399 5.72C43.933 34.436 40.868 38 32 38c-8.868 0-11.934-3.565-13.613-7.246-1.183-2.593-1.38-4.693-1.4-5.744zM18 52a3 3 0 0 0-3 3c0 .171.023.337.05.5A2.993 2.993 0 0 1 18 53h11v-1H18zm17 0v1h11a2.993 2.993 0 0 1 2.95 2.5c.027-.163.05-.329.05-.5a3 3 0 0 0-3-3H35z"/></svg>
